trunk/public/assets/images/icons/black/refresh/mensa2.svg

<svg width="16" height="16" xmlns="http://www.w3.org/2000/svg" viewBox="0 0 16 16" shape-rendering="geometricPrecision"><defs><mask id="a"><rect fill="#fff" width="100%" height="100%"/><path d="M17.514 2.67l-.862-.55L16.65-1h-2.866v.558c-1.334-.3-2.758.103-3.723 1.067-1.568 1.57-1.553 4.14.036 5.732.78.777 1.81 1.205 2.9 1.205 1.072 0 2.078-.415 2.832-1.168C16.585 5.64 17 4.63 17 3.557V2.67h.514zm-3.373.888c0 .22-.057.54-.332.813-.443.444-1.23.427-1.69-.034-.475-.475-.49-1.234-.036-1.69.01-.01.02-.02.033-.03v.922h2.026v.02z"/></mask></defs><path d="M13.114 2.537h2.538V0h-.868v1.105c-1.204-.927-2.924-.863-4.016.227-1.187 1.188-1.162 3.12.035 4.317 1.2 1.197 3.13 1.223 4.32.036.584-.584.878-1.357.877-2.128h-.86c0 .558-.207 1.103-.626 1.522-.843.842-2.23.836-3.104-.036-.87-.872-.877-2.26-.035-3.105.73-.728 1.86-.82 2.72-.27h-.982v.867z" fill="#cb1800"/><g mask="url(#a)"><path d="M15.002 12.385H.998v.83h.85l.65.804h11.08l.65-.806H15M7.325 8.637c-.804-.537-1.6-.875-2.117-.797l-1.04-.862c.15-.19.124-.472-.064-.625-.192-.16-.475-.13-.633.058-.106.132-.122.305-.062.45-.157-.028-.324.018-.432.15-.157.19-.13.472.06.63.184.153.45.13.61-.04l1.027.848c-.004.52.49 1.252 1.173 1.976.87.922 1.854 1.393 2.524.582.65-.785.03-1.656-1.045-2.37z"/><path d="M9.77 8.43c1.32 0 2.398.926 2.398 2.064 0 1.14-1.075 2.066-2.397 2.066-2.07 0-5.646-.486-6.204-1.09-.01-.027-.013-.084.042-.197.224-.478 1.062-1.12 2.175-1.375.304-.067.607-.103.904-.103.062 0 .124.002.186.005l.552.027.33-.444c.445-.598 1.2-.953 2.016-.953m0-1.036c-1.186 0-2.23.545-2.846 1.37-.077 0-.157-.004-.237-.004-.365 0-.747.043-1.134.13-1.89.43-3.495 1.896-2.902 3.07.706 1.396 6.388 1.636 7.122 1.636 1.897 0 3.432-1.39 3.432-3.102 0-1.713-1.537-3.1-3.433-3.1zM8.25 6.97l-.377-.36c.03-.028.732-.82-.033-2.096-.817-1.364-.023-2.487.012-2.534l.42.3c-.026.038-.626.905.01 1.967.973 1.624.01 2.677-.033 2.722z"/><path d="M7.214 6.97l-.377-.36c.03-.028.733-.82-.033-2.094-.816-1.366-.022-2.49.013-2.536l.42.3c-.027.038-.625.905.01 1.967.973 1.624.008 2.677-.033 2.722zM9.284 6.97l-.376-.36c.027-.028.73-.82-.033-2.097-.817-1.363-.023-2.486.012-2.533l.418.3c-.026.038-.623.905.013 1.967.973 1.624.008 2.677-.034 2.722z"/></g></svg>

<?xml version="1.0"?><!DOCTYPE svg PUBLIC "-//W3C//DTD SVG 1.1//EN" "http://www.w3.org/Graphics/SVG/1.1/DTD/svg11.dtd"><svg width="16px" height="16px" xmlns="http://www.w3.org/2000/svg" viewBox="0 0 16 16" shape-rendering="geometricPrecision" fill="#000"><defs><mask id="refresh-path"><rect fill="#fff" width="100%" height="100%"/><path d="M17.514,2.671l-0.862-0.552L16.65-1h-2.866v0.558c-1.334-0.3-2.758,0.103-3.723,1.067 c-1.569,1.569-1.554,4.141,0.035,5.732c0.779,0.777,1.809,1.205,2.901,1.205c1.071,0,2.077-0.415,2.831-1.168 C16.585,5.639,17.001,4.631,17,3.557l0-0.886H17.514z M14.141,3.558c0,0.22-0.058,0.539-0.333,0.813 c-0.443,0.443-1.23,0.426-1.69-0.035c-0.475-0.475-0.49-1.234-0.036-1.689c0.011-0.011,0.021-0.022,0.033-0.031l0,0.922h2.026 V3.558z" fill="#000"/></mask></defs><path display="inline" d="M13.114,2.537h2.538L15.651,0h-0.867v1.105 c-1.204-0.927-2.924-0.863-4.016,0.227C9.581,2.52,9.606,4.451,10.803,5.649c1.201,1.198,3.131,1.224,4.319,0.037 C15.707,5.102,16.001,4.329,16,3.558l-0.859,0.001c-0.001,0.557-0.208,1.102-0.627,1.521c-0.843,0.842-2.231,0.836-3.104-0.036 c-0.871-0.872-0.877-2.26-0.035-3.105c0.729-0.727,1.86-0.818,2.721-0.268h-0.983L13.114,2.537z" fill="#cb1800"/><g mask="url(#refresh-path)"><g><polygon points="15.002,12.385 0.998,12.385 0.998,13.214 1.848,13.214 2.497,14.019 13.579,14.019 14.227,13.214 15.002,13.214"/><path d="M7.325,8.637C6.521,8.1,5.726,7.762,5.208,7.84L4.167,6.978c0.152-0.191,0.125-0.472-0.063-0.625 c-0.192-0.16-0.475-0.131-0.633,0.058c-0.107,0.131-0.123,0.304-0.063,0.45C3.251,6.832,3.084,6.878,2.976,7.01 C2.819,7.201,2.845,7.482,3.037,7.641C3.22,7.793,3.486,7.771,3.646,7.6l1.027,0.848C4.669,8.969,5.163,9.7,5.846,10.424 c0.869,0.922,1.854,1.393,2.524,0.582C9.02,10.221,8.399,9.35,7.325,8.637z"/><path d="M9.771,8.43c1.32,0,2.397,0.926,2.397,2.064c0,1.141-1.075,2.066-2.397,2.066c-2.07,0-5.647-0.486-6.205-1.09 c-0.009-0.027-0.013-0.084,0.042-0.197c0.224-0.478,1.062-1.121,2.175-1.375C6.087,9.831,6.39,9.795,6.687,9.795 c0.062,0,0.124,0.002,0.186,0.005l0.552,0.027l0.331-0.444C8.2,8.785,8.955,8.43,9.771,8.43 M9.771,7.394 c-1.187,0-2.23,0.545-2.847,1.371C6.847,8.764,6.767,8.76,6.687,8.76c-0.365,0-0.747,0.043-1.134,0.131 c-1.891,0.43-3.495,1.895-2.902,3.07c0.705,1.395,6.387,1.635,7.121,1.635c1.897,0,3.432-1.39,3.432-3.102 C13.203,8.781,11.667,7.394,9.771,7.394L9.771,7.394z"/><g><path d="M8.249,6.969L7.873,6.611C7.902,6.582,8.605,5.79,7.84,4.514C7.023,3.15,7.817,2.027,7.852,1.98l0.419,0.301 C8.246,2.318,7.646,3.185,8.283,4.247C9.255,5.871,8.291,6.924,8.249,6.969L8.249,6.969z"/></g><g><path d="M7.214,6.969L6.837,6.611C6.867,6.582,7.57,5.79,6.804,4.516C5.988,3.15,6.782,2.027,6.817,1.98l0.42,0.301 C7.21,2.318,6.612,3.185,7.248,4.247C8.22,5.871,7.255,6.924,7.214,6.969L7.214,6.969z"/></g><g><path d="M9.284,6.969L8.908,6.611c0.027-0.029,0.73-0.821-0.033-2.098C8.058,3.15,8.852,2.027,8.887,1.98l0.418,0.301 C9.279,2.318,8.682,3.185,9.318,4.247C10.291,5.871,9.326,6.924,9.284,6.969L9.284,6.969z"/></g></g></g></svg>
